X: 12133
T: Everybody Knows That One!
R: jig
M: 6/8
K: Eminor
|:B|"Em"Bed B2G|"D"ABc "Em"BGE|"D"FEF "Em"GAB|"Bm"cBA "Em"B2B|
"Em"Bed B2G|"D"ABc "Em"BGE|"Bm"FEF "Em"GAB|"D"GAF "Em"E2:|
|:B|"Em"B2e e2g|"D"fed "Em"edB|"Em"BAB e2g|"Bm"fed "Em"e2d|
"Bm"Bdf "Em"gfe|"Bm"dBe "D"dBA|"Em"GEd "Bm"BAG|"D"FED "Em"E2:|

